brandFactory_export/3.Masa/Saldo_3Masa.svg

<?xml version="1.0" encoding="UTF-8"?>
<svg width="24px" height="24px" viewBox="0 0 24 24" version="1.1" xmlns="http://www.w3.org/2000/svg" xmlns:xlink="http://www.w3.org/1999/xlink">
    <title>3.Masa/Saldo_3Masa</title>
    <g id="Symbols" stroke="none" stroke-width="1" fill="none" fill-rule="evenodd">
        <g id="3.Masa/Saldo_3Masa" fill="#5CB615" fill-rule="nonzero">
            <path d="M13.1983193,-5.32907052e-13 C13.3697479,-5.32907052e-13 13.5344538,0.0672268908 13.6588235,0.18487395 L13.6588235,0.18487395 L20.2134454,6.40336134 C20.3478992,6.53109244 20.4252101,6.70588235 20.4252101,6.8907563 L20.4252101,6.8907563 L20.4252101,22.302521 C20.4252101,23.0084034 19.8033613,23.6302521 19.097479,23.6302521 L19.097479,23.6302521 L4.34117647,23.6302521 C3.63529412,23.6302521 3.01344538,23.0084034 3.01344538,22.302521 L3.01344538,22.302521 L3.01344538,1.32773109 C3.01344538,0.645378151 3.65882353,-5.32907052e-13 4.34117647,-5.32907052e-13 L4.34117647,-5.32907052e-13 Z M15.205042,12.9243697 C14.9260504,12.9243697 14.7008403,13.1495798 14.7008403,13.4285714 L14.7008403,13.4285714 L14.7008403,13.7983193 C13.712605,13.9764706 13.1008403,14.6756303 13.1008403,15.6773109 C13.1008403,16.3428571 13.389916,17.1663866 14.7008403,17.4453782 L14.7008403,17.4453782 L14.7008403,19.3378151 C14.3747899,19.2537815 14.0621849,19.112605 13.7831933,18.9210084 C13.6890756,18.8571429 13.5747899,18.8201681 13.4605042,18.8168067 C13.1848739,18.8168067 12.9596639,19.0386555 12.9563025,19.3142857 C12.9563025,19.4991597 13.0369748,19.6470588 13.194958,19.7579832 C13.6453782,20.0672269 14.1630252,20.2689076 14.7042017,20.3462185 L14.7042017,20.3462185 L14.7042017,20.7058824 C14.7042017,20.9848739 14.9294118,21.210084 15.2084034,21.210084 C15.487395,21.210084 15.712605,20.9848739 15.712605,20.7058824 L15.712605,20.7058824 L15.712605,20.3361345 C16.1932773,20.2655462 16.5966387,20.0941176 16.8991597,19.8319328 C17.302521,19.4823529 17.5176471,18.9882353 17.5143245,18.4033613 C17.5143245,17.6941176 17.194958,16.8168067 15.7092437,16.5747899 L15.7092437,16.5747899 L15.7092437,14.7865546 C15.9445378,14.8436975 16.1697479,14.9310924 16.3815126,15.0487395 L16.3815126,15.0487395 C16.4789916,15.102521 16.5764706,15.1294118 16.6773109,15.1327731 C16.9462185,15.1327731 17.1647059,14.9142857 17.1647059,14.6453782 C17.1647059,14.5378151 17.1277311,14.3361345 16.8789916,14.1848739 C16.5495798,13.9831933 16.1462185,13.8487395 15.7092437,13.7882353 L15.7092437,13.7882353 L15.7092437,13.4285714 C15.7092437,13.1495798 15.4840336,12.9243697 15.205042,12.9243697 Z M10.4117647,11.1798319 C10.0420168,11.1798319 9.7394958,11.4823529 9.7394958,11.8521008 L9.7394958,11.8521008 L9.7394958,20.3193277 C9.7394958,20.6890756 10.0420168,20.9915966 10.4117647,20.9915966 C10.7815126,20.9915966 11.0840336,20.6890756 11.0840336,20.3193277 L11.0840336,20.3193277 L11.0840336,11.8521008 C11.0840336,11.4823529 10.7815126,11.1798319 10.4117647,11.1798319 Z M7.10084034,5.91932773 C6.73109244,5.91932773 6.42857143,6.22184874 6.42857143,6.59159664 L6.42857143,6.59159664 L6.42857143,20.302521 C6.42857143,20.6722689 6.73109244,20.9747899 7.10084034,20.9747899 C7.47058824,20.9747899 7.77310924,20.6722689 7.77310924,20.302521 L7.77310924,20.302521 L7.77310924,6.59159664 C7.77310924,6.22184874 7.47058824,5.91932773 7.10084034,5.91932773 Z M15.712605,17.610084 C16.4084034,17.7815126 16.512605,18.107563 16.512605,18.4436975 C16.512605,18.9042017 16.2168067,19.2302521 15.712605,19.3512605 L15.712605,19.3512605 Z M14.7042017,14.8067227 L14.7042017,16.389916 C14.189916,16.2084034 14.1058824,15.912605 14.1058824,15.6336134 C14.1058824,15.2235294 14.3210084,14.9344538 14.7042017,14.8067227 Z M13.5344538,1.91932773 L13.5344538,4.26890756 C13.5344538,5.0487395 13.7798319,5.70756303 14.2403361,6.16806723 C14.7008403,6.62857143 15.3563025,6.87394958 16.1394958,6.87394958 L16.1394958,6.87394958 L18.7579832,6.87394958 L13.5344538,1.91932773 Z" id="Saldo_3Masa"></path>
        </g>
    </g>
</svg>

<svg width="24" height="24" viewBox="0 0 24 24" xmlns="http://www.w3.org/2000/svg"><path d="M13.198 0c.172 0 .336.067.46.185l6.555 6.218a.672.672 0 01.212.488v15.412c0 .705-.622 1.327-1.328 1.327H4.341c-.706 0-1.328-.622-1.328-1.327V1.328C3.013.645 3.66 0 4.341 0zm2.007 12.924a.504.504 0 00-.504.505v.37c-.988.177-1.6.877-1.6 1.878 0 .666.289 1.49 1.6 1.768v1.893a2.906 2.906 0 01-.918-.417.613.613 0 00-.322-.104c-.276 0-.501.222-.505.497 0 .185.081.333.239.444.45.31.968.51 1.51.588v.36a.504.504 0 101.008 0v-.37c.48-.07.884-.242 1.186-.504.404-.35.619-.844.615-1.429 0-.709-.319-1.586-1.805-1.828v-1.788c.236.057.46.144.673.262.097.054.194.08.295.084a.488.488 0 00.488-.488c0-.107-.037-.309-.286-.46a3.05 3.05 0 00-1.17-.397v-.36a.504.504 0 00-.504-.504zm-4.793-1.744a.674.674 0 00-.673.672v8.467c0 .37.303.673.673.673.37 0 .672-.303.672-.673v-8.467a.674.674 0 00-.672-.672zM7.1 5.92a.674.674 0 00-.672.672v13.71c0 .37.302.673.672.673.37 0 .672-.303.672-.672V6.592a.674.674 0 00-.672-.673zm8.612 11.69c.695.172.8.498.8.834 0 .46-.296.786-.8.907zm-1.009-2.803v1.583c-.514-.182-.598-.477-.598-.756 0-.41.215-.7.598-.827zm-1.17-12.888v2.35c0 .78.246 1.439.706 1.9.46.46 1.116.705 1.9.705h2.618l-5.224-4.955z" fill="#5CB615" fill-rule="nonzero"/></svg>
